icon_installer/data/icons/scalable/actions/show-pencil-and-paper-symbolic.svg

<?xml version="1.0" encoding="UTF-8"?>
<svg height="16px" viewBox="0 0 16 16" width="16px" xmlns="http://www.w3.org/2000/svg">
    <path d="m 4.996094 9.996094 l 7 -7 l 2 2 l -7 7 h -2 z m 0 0" fill="#222222" fill-rule="evenodd"/>
    <path d="m 14.152344 1.101562 c -0.136719 0 -0.265625 0.054688 -0.363282 0.152344 l -1.160156 1.160156 l 2.003906 2.003907 l 1.160157 -1.160157 c 0.203125 -0.203124 0.203125 -0.527343 0 -0.730468 l -1.277344 -1.273438 c -0.09375 -0.097656 -0.226563 -0.152344 -0.363281 -0.152344 z m 0 0" fill="#222222" fill-rule="evenodd"/>
    <path d="m 3 0 c -1.644531 0 -3 1.355469 -3 3 v 9.808594 c 0 1.75 1.441406 3.191406 3.191406 3.191406 h 6.808594 c 1.644531 0 3 -1.355469 3 -3 v -5.007812 l -2 2 v 3.007812 c 0 0.5625 -0.4375 1 -1 1 h -6.808594 c -0.671875 0 -1.191406 -0.523438 -1.191406 -1.191406 v -9.808594 c 0 -0.5625 0.4375 -1 1 -1 h 4.585938 l 1.703124 1.703125 l 1.414063 -1.414063 l -1.996094 -1.996093 c -0.1875 -0.1875 -0.441406 -0.292969 -0.707031 -0.292969 z m 0 0"/>
</svg>

<svg xmlns="http://www.w3.org/2000/svg" width="16" height="16"><path fill="#222" fill-rule="evenodd" d="m4.996 9.996 7-7 2 2-7 7h-2zm9.156-8.894a.512.512 0 0 0-.363.152l-1.16 1.16 2.004 2.004 1.16-1.16a.514.514 0 0 0 0-.73l-1.277-1.274a.505.505 0 0 0-.364-.152zm0 0"/><path d="M3 0C1.355 0 0 1.355 0 3v9.809A3.208 3.208 0 0 0 3.191 16H10c1.645 0 3-1.355 3-3V7.992l-2 2V13c0 .562-.438 1-1 1H3.191A1.176 1.176 0 0 1 2 12.809V3c0-.563.437-1 1-1h4.586l1.703 1.703 1.414-1.414L8.707.293A1 1 0 0 0 8 0zm0 0"/></svg>
